!!!!SEGMENT:29Rakubai_c.krn
!!!OTL: 落梅（箏曲）
!!!OPR:Eiga Banso Kyokusyu,jidai-geki,zenpen
!!!YOY:1929
!!!ONB:Shitunai,Beautiful,Koto
**kern
*clefG2
*k[]
*C:
*M4/4
*met(c)
=1
!LO:TX:a:B:t=Andante
2e
(8qaa/
4bb)
8r
16bbLL
16aaJJ
=2
2ff
2ee
=3
8eeL
8ee
8b
8bJ
4ff
4ee
=4
4ff
4ee
2ff
=5
4r
8ffL
8ffJ
4ff
4ff
=6
4ee
4cc
4e
4e
=7
2ee
4ff
4ff
=8
8aaL
8ff
8ee
8ccJ
8eeL
8ffJ
8.eeL
16ccJk
=9
2b
4a
4f
=10
8aL
8b
8b
8ddJ
4e
4ee
=11
2ee
2ee
=12
4ee
4cc
8.eeL
16ccJk
4b
=13
2b
4ff
4ee

=14
4ff
4ee
2ff
=15
4r
8ffL
8ffJ
4ff
4ff
=16
4ee
4cc
4e
4e
=17
2ee
4ff
4ff
=18
8aaL
8ff
8ee
8ccJ
8eeL
8ffJ
8.eeL
16ccJk
=19
2b
4a
4f
=20
8aL
8b
8b
8ddJ
4e
4ff
=21
2ff
4r
4ff
=22
2ff
4r
4ff
=23
4ff
4aa
4bb
4aa
=24
2ff
2ee
=25
4aa
4ff
4.ee
8cc
=26
2b
4ff#X
4ee
=27
4cc
4b
2dd
=28
4ee
4ff
4aa
4ff
=29
4.ee
8cc
2b
=30
4ff
4ff
8aaL
8ff
8ee
8ccJ
=31
8eeL
8ffJ
8.eeL
16ccJk
2b
=32
4ee
4b
8ddL
8ee
8ff
8aaJ
=33
4e
4bb
2bb
=34
4b
4b
4bb
4aa
=35
2b
8.bbL
16aaJk
4ff
=36
2ff
4r
4ff
=37
2ff
4ccc
4bb
=38
8aaL
8ffJ
4ff
4r
8aaL
8ffJ
=39
8aa
4aa
8ff
8fL
16bbL
16aaJJ
4ff
=40
2ee
4ff
4aa
=41
4b
4b
2bb
=42
8.bbL
16aaJk
4ff
2ff
=43
4r
4ff
2ff
=44
4ccc
4bb
8aaL
8ffJ
4ff
=45
4ff
4aa
4ff
4ee
=46
4dd
4ee
2ff
=47
8aL
8aJ
4aa
4ff
8eeL
8ccJ
=48
8eeL
8ffJ
8.eeL
16ccJk
2b
=49
4b
4r
4ee
4b
=50
4dd
4ee
2ff
=51
4aa
4bb
2ccc
=52
4cc
4b
8.bbL
16aaJk
4ff
=53
4ff
[4ee
4ee]
[4dd
=54
4dd]
4r
4ee
4r
=55
2ee
2r
==
*-
!!!ENC: Yukiko Yoden
!!!END: 2023/06/11
